X: 26574
T: Mick Duggan's
R: slide
M: 12/8
K: Amajor
|:A2 c e2 c|d2 f a2 f|A2 c e2 c|B2 c dcB|
A2 c e2 c|d2 f a2 f|efe dcB|A3 A3:|
|:a3 agf|g3 ~g3|f3 fga|e2 c B2 c|
A2 c e2 c|d2 f a2 f|efe dcB|A3 A3:|

